X: 2
T: Yila yiche hao nanhuo
L: 1/8
M: 2/4
K: A
b> b b e' [I:setbarnb 1]| 
f> aa2 | 
f a f e | 
B4 | 
b> b b e' | 
f> aa2 | 
f aa2 | 
e4 |]

@@@ Tune index: 8876
